X: 19254
T: Itchy Cow, The
R: reel
M: 4/4
K: Dmajor
|:DFFF FEDE|FGAG FDDz|EGGG GFEF|GEAF GFEF|
DFFF FEDE|FGAG FDDz|EGGG Aced|cAGE D2z2:|
|:FAdf ecdB|AFFF EGGz|FAdf ecdB|AFFE D2z2|
FAdf ecdB|AFFF EGGz|EGGG Aced|cAGE D2z2:|

